assets/images/svg/shake_24.svg

<svg width="24" height="24" viewBox="0 0 24 24" fill="none" xmlns="http://www.w3.org/2000/svg">
<g clip-path="url(#clip0_868_259)">
<path d="M11.864 2.78645C10.6532 3.87911 8.36025 3.83763 8.36025 3.83763C7.16929 3.8372 6.19451 4.81127 6.19409 6.00218C6.19367 7.19314 7.16774 8.16792 8.35865 8.16834L10.3126 8.16904C10.8392 8.16923 11.3234 7.97863 11.6999 7.66326C12.9649 6.79124 12.8187 4.60652 12.5932 3.26228C12.4196 2.27574 11.864 2.78645 11.864 2.78645Z" fill="#CC5BA5"/>
<path d="M11.488 10.6287C11.7616 10.7473 12.0866 10.6444 12.2392 10.38L16.599 2.82862L20.0129 1.50725C20.3193 1.38866 20.4715 1.04412 20.3529 0.737747C20.2344 0.431324 19.8898 0.279073 19.5834 0.397714L15.9739 1.79483C15.8473 1.84382 15.7412 1.93461 15.6734 2.05218L11.2088 9.78514C11.0445 10.0697 11.1421 10.4335 11.4266 10.5978C11.4467 10.6093 11.4673 10.6196 11.488 10.6287Z" fill="#72BD87"/>
<path d="M14.1714 5.66341C14.1735 5.3846 14.1606 5.0725 14.1228 4.73828L11.2088 9.78553C11.0445 10.0701 11.1421 10.4339 11.4266 10.5982C11.4466 10.6098 11.4672 10.6201 11.488 10.6291C11.7615 10.7477 12.0865 10.6448 12.2391 10.3804L14.6831 6.1474C14.5293 5.96941 14.358 5.80708 14.1714 5.66341Z" fill="#D2F2CD"/>
<path d="M11.8503 7.54707H11.1728C10.3532 7.54707 9.64062 7.06543 9.30406 6.3712H10.138C10.3352 6.3712 10.495 6.21145 10.495 6.01425C10.495 5.81709 10.3352 5.65729 10.138 5.65729H9.10657C9.10109 5.59617 9.09781 5.53448 9.09781 5.47195C9.09781 4.91863 9.56605 4.12499 10.0079 3.65234C9.12706 3.85189 8.36037 3.83802 8.36037 3.83802C7.16941 3.83759 6.19464 4.81166 6.19421 6.00258C6.19379 7.19354 7.16786 8.16831 8.35877 8.16873L10.3127 8.16943C10.8393 8.16962 11.3235 7.97903 11.7 7.66365C11.7528 7.62737 11.8022 7.5879 11.8503 7.54707Z" fill="#CC5BA5"/>
<path d="M12.0609 10.5529H6.8491C5.72812 10.5529 4.81091 9.63568 4.81091 8.5147V8.40928C4.81091 7.2883 5.72812 6.37109 6.8491 6.37109H12.0609C13.1819 6.37109 14.0991 7.2883 14.0991 8.40928V8.5147C14.0991 9.63568 13.1819 10.5529 12.0609 10.5529Z" fill="#F07CC8"/>
<path d="M10.3391 7.94962H8.15312C8.36303 7.04816 9.17505 6.37109 10.1381 6.37109H6.8491C5.72807 6.37109 4.81091 7.2883 4.81091 8.40928V8.5147C4.81091 9.63568 5.72812 10.5529 6.8491 10.5529H10.1381C9.06714 10.5529 8.18289 9.71564 8.10592 8.66353H10.3391C10.5363 8.66353 10.6961 8.50378 10.6961 8.30657C10.6961 8.10937 10.5363 7.94962 10.3391 7.94962Z" fill="#CC5BA5"/>
<path d="M12.8566 12.8141H6.05586C4.91459 12.8141 3.98083 11.8804 3.98083 10.7391C3.98083 9.59782 4.91459 8.66406 6.05586 8.66406H12.8566C13.9979 8.66406 14.9316 9.59782 14.9316 10.7391C14.9316 11.8804 13.9978 12.8141 12.8566 12.8141Z" fill="#F07CC8"/>
<path d="M7.26848 10.7391C7.26848 9.59782 8.20223 8.66406 9.34351 8.66406H6.05586C4.91459 8.66406 3.98083 9.59782 3.98083 10.7391C3.98083 11.8804 4.91459 12.8141 6.05586 12.8141H9.34351C8.20223 12.8141 7.26848 11.8804 7.26848 10.7391Z" fill="#F07CC8"/>
<path d="M4.68909 13.5565L6.54005 23.0223C6.61097 23.3828 6.92701 23.6428 7.29451 23.6428H11.6978C12.0681 23.6428 12.3859 23.3788 12.4537 23.0146L14.2234 13.5195L4.68909 13.5565Z" fill="#C2DFF6"/>
<path d="M4.68909 13.5566L6.54005 23.0224C6.61097 23.383 6.92701 23.643 7.29451 23.643H9.13474C8.76728 23.643 8.45116 23.383 8.38028 23.0224L6.52932 13.5566H4.68909Z" fill="#96C8EF"/>
<path opacity="0.5" d="M4.68909 13.5566L5.21029 16.2218H7.05048L6.52932 13.5566H4.68909Z" fill="#5AAAE7"/>
<path d="M5.70679 13.1328L7.32694 22.0427C7.32694 22.0427 7.43503 22.6922 8.04661 22.6922H10.9487C11.5398 22.6922 11.6685 22.0413 11.6685 22.0413L13.3491 13.1328H5.70679Z" fill="#CC5BA5"/>
<path d="M9.56364 22.0427L7.94349 13.1328H5.70679L7.32694 22.0427C7.32694 22.0427 7.43503 22.6922 8.04661 22.6922H10.9487C10.9489 22.6922 10.949 22.6922 10.9492 22.6922H10.2833C9.67169 22.6922 9.56364 22.0427 9.56364 22.0427Z" fill="#F07CC8"/>
<path d="M5.21029 16.2216H13.7198L14.2234 13.5195L4.68909 13.5565L5.21029 16.2216Z" fill="#78B9EB"/>
<path d="M15.1827 11.4488C15.0746 11.3122 14.9098 11.2324 14.7355 11.2324H4.17704C4.00271 11.2324 3.83799 11.3122 3.72985 11.4488C3.62166 11.5854 3.58191 11.7641 3.62194 11.9337L4.02418 13.6389C4.08493 13.8963 4.31471 14.0782 4.57927 14.0782H14.3333C14.5979 14.0782 14.8277 13.8963 14.8884 13.6389L15.2906 11.9337C15.3306 11.7641 15.2909 11.5854 15.1827 11.4488Z" fill="#C2DFF6"/>
<path d="M5.86436 13.6389L5.46212 11.9337C5.42209 11.7641 5.46184 11.5854 5.57003 11.4488C5.67822 11.3122 5.84294 11.2324 6.01722 11.2324H4.17704C4.00271 11.2324 3.83799 11.3122 3.72985 11.4488C3.62166 11.5854 3.58191 11.7641 3.62194 11.9337L4.02418 13.6389C4.08493 13.8963 4.31471 14.0782 4.57927 14.0782H6.4195C6.15489 14.0783 5.92506 13.8964 5.86436 13.6389Z" fill="#96C8EF"/>
<path d="M13.3215 13.0127H10.0568C9.85963 13.0127 9.69983 12.853 9.69983 12.6558C9.69983 12.4586 9.85958 12.2988 10.0568 12.2988H13.3215C13.5186 12.2988 13.6784 12.4586 13.6784 12.6558C13.6784 12.8529 13.5186 13.0127 13.3215 13.0127Z" fill="#96C8EF"/>
<path d="M11.7266 7.70339C11.9106 7.70339 12.0597 7.55424 12.0597 7.37025C12.0597 7.18626 11.9106 7.03711 11.7266 7.03711C11.5426 7.03711 11.3934 7.18626 11.3934 7.37025C11.3934 7.55424 11.5426 7.70339 11.7266 7.70339Z" fill="white"/>
<path d="M11.6294 5.05691C11.8134 5.05691 11.9626 4.90776 11.9626 4.72377C11.9626 4.53978 11.8134 4.39062 11.6294 4.39062C11.4454 4.39062 11.2963 4.53978 11.2963 4.72377C11.2963 4.90776 11.4454 5.05691 11.6294 5.05691Z" fill="white"/>
<path d="M12.6446 10.5536C12.7613 10.5536 12.8559 10.459 12.8559 10.3422C12.8559 10.2255 12.7613 10.1309 12.6446 10.1309C12.5279 10.1309 12.4332 10.2255 12.4332 10.3422C12.4332 10.459 12.5279 10.5536 12.6446 10.5536Z" fill="white"/>
<path d="M10.4868 10.0301C10.6035 10.0301 10.6981 9.93551 10.6981 9.81878C10.6981 9.70205 10.6035 9.60742 10.4868 9.60742C10.37 9.60742 10.2754 9.70205 10.2754 9.81878C10.2754 9.93551 10.37 10.0301 10.4868 10.0301Z" fill="white"/>
<path d="M11.2963 3.82702C11.4131 3.82702 11.5077 3.73239 11.5077 3.61566C11.5077 3.49893 11.4131 3.4043 11.2963 3.4043C11.1796 3.4043 11.085 3.49893 11.085 3.61566C11.085 3.73239 11.1796 3.82702 11.2963 3.82702Z" fill="white"/>
<path d="M10.0641 5.26842C10.1809 5.26842 10.2755 5.1738 10.2755 5.05706C10.2755 4.94033 10.1809 4.8457 10.0641 4.8457C9.94741 4.8457 9.85278 4.94033 9.85278 5.05706C9.85278 5.1738 9.94741 5.26842 10.0641 5.26842Z" fill="white"/>
<path d="M13.2408 18.8245C13.0472 18.7883 12.8607 18.9162 12.8245 19.11L12.5941 20.3459C12.558 20.5397 12.6858 20.726 12.8796 20.7622C12.9017 20.7663 13.2254 20.8161 13.2959 20.4767L13.5263 19.2408C13.5623 19.047 13.4346 18.8606 13.2408 18.8245Z" fill="black"/>
<path d="M20.6858 0.608848C20.5941 0.371706 20.4155 0.184486 20.1829 0.0816883C19.9504 -0.0210623 19.6917 -0.0270623 19.4546 0.0647194L15.8451 1.46179C15.6433 1.53988 15.4725 1.68609 15.3643 1.87354L13.0271 5.92174C13.1485 5.16611 13.1217 4.25513 12.9448 3.20077C12.8607 2.72288 12.6698 2.43037 12.3772 2.33123C11.9902 2.20003 11.659 2.49051 11.6249 2.52178C10.535 3.50546 8.38807 3.48165 8.36669 3.48108C8.36421 3.48099 8.36201 3.48094 8.35929 3.48104C7.99769 3.48104 7.64786 3.55688 7.31959 3.70651C7.14016 3.78826 7.06108 3.9999 7.14283 4.17934C7.22453 4.35873 7.43613 4.43795 7.61566 4.3561C7.84975 4.24946 8.09922 4.19518 8.35727 4.1949C8.4971 4.19701 10.8279 4.22823 12.1057 3.04955C12.1982 2.96424 12.2101 3.14532 12.2412 3.32166C12.3701 4.08971 12.4715 5.15064 12.279 6.03475H11.9627C11.7655 6.03475 11.6057 6.19451 11.6057 6.39171C11.6057 6.58887 11.7655 6.74866 11.9627 6.74866H12.3236C13.1339 6.87729 13.7421 7.58689 13.7421 8.40927V8.474C13.6111 8.42253 13.4742 8.38203 13.3324 8.35363C13.1392 8.31505 12.951 8.44021 12.9124 8.63352C12.8737 8.82683 13.0034 8.99718 13.1923 9.05357C14.7483 9.51806 14.5721 10.83 14.5685 10.8756H4.34362C4.33997 10.83 4.33776 10.7842 4.33776 10.7385C4.33776 9.93018 4.91283 9.22284 5.70507 9.05662C5.89801 9.01612 6.02157 8.82693 5.98112 8.63399C5.94066 8.441 5.75152 8.31744 5.55849 8.35794C5.42344 8.38625 5.29304 8.42596 5.16774 8.47546V8.40922C5.16774 7.58684 5.7758 6.87724 6.58628 6.74862H6.84901C7.04617 6.74862 7.20597 6.58887 7.20597 6.39166C7.20597 6.19451 7.04622 6.03471 6.84901 6.03471H6.55951C6.55698 6.03471 6.5387 5.65113 6.67154 5.35638C6.7525 5.17661 6.6512 4.96586 6.46736 4.89475C6.28342 4.82364 6.0886 4.92011 6.00573 5.09894C5.7773 5.59169 5.84129 6.1578 5.84841 6.23515C4.27819 7.03667 4.46414 8.76458 4.48359 8.88763C3.44526 9.72023 3.63088 10.9427 3.64373 11.0439C3.57168 11.0947 3.50629 11.1561 3.4499 11.2274C3.27295 11.4509 3.20905 11.7382 3.27449 12.0157L3.67668 13.7208C3.76996 14.1163 4.10367 14.3995 4.50244 14.4319L6.19567 23.0914C6.29926 23.6179 6.76384 24 7.30038 24H11.7037C12.2459 24 12.7113 23.6132 12.8105 23.0803L13.0674 21.702C13.1036 21.5082 12.9758 21.3218 12.7819 21.2857C12.5885 21.2495 12.4018 21.3774 12.3656 21.5712L12.1087 22.9497C12.0724 23.1447 11.9021 23.2862 11.7037 23.2862H7.30038C7.10406 23.2862 6.93405 23.1463 6.89622 22.954L5.64966 16.5788H13.2961L13.0597 17.8472C13.0235 18.041 13.1513 18.2273 13.3452 18.2635C13.3673 18.2676 13.6954 18.3046 13.7615 17.978L14.4226 14.4305C14.8157 14.3932 15.1435 14.112 15.2358 13.7207L15.6379 12.0156C15.7034 11.7381 15.6394 11.4507 15.4625 11.2273C15.4062 11.1562 15.3409 11.0948 15.269 11.044C15.2819 10.9427 15.2885 10.8407 15.2885 10.7384C15.2885 10.0063 14.9577 9.33562 14.427 8.88458C14.4461 8.76257 14.546 7.92359 14.2904 7.54072L16.8452 3.11574L20.1417 1.83975C20.3788 1.74796 20.566 1.56937 20.6687 1.33682C20.7716 1.10451 20.7776 0.845849 20.6858 0.608848ZM13.4291 15.865H5.51002L5.23041 14.4352H13.6955L13.4291 15.865ZM14.7355 11.5895C14.8011 11.5895 14.8621 11.619 14.9028 11.6705C14.9435 11.7219 14.9582 11.788 14.9432 11.8519L14.541 13.557C14.5182 13.6537 14.4328 13.7214 14.3334 13.7214H4.57922C4.47975 13.7214 4.39434 13.6537 4.37151 13.557L3.96932 11.8519C3.95428 11.7879 3.96895 11.7219 4.00964 11.6705C4.05037 11.619 4.1114 11.5895 4.17703 11.5895H14.7355ZM20.0158 1.04844C19.9902 1.10662 19.9433 1.15124 19.884 1.17421L16.4702 2.49562C16.3942 2.52497 16.3306 2.57953 16.2899 2.65003L13.8684 6.8441C13.7617 6.72077 13.6422 6.6086 13.5125 6.5089L15.9826 2.2305C16.0097 2.18367 16.0523 2.14706 16.1028 2.12756L19.7124 0.730442C19.7716 0.707567 19.8363 0.70902 19.8944 0.734708C19.9526 0.760395 19.9972 0.80713 20.0201 0.866474C20.043 0.925725 20.0415 0.990366 20.0158 1.04844Z" fill="black"/>
</g>
<defs>
<clipPath id="clip0_868_259">
<rect width="24" height="24" fill="white"/>
</clipPath>
</defs>
</svg>

<svg xmlns="http://www.w3.org/2000/svg" width="24" height="24" fill="none">
    <g clip-path="url(#a)">
        <path fill="#CC5BA5"
            d="M11.86 2.79c-1.2 1.09-3.5 1.05-3.5 1.05-1.2 0-2.17.97-2.17 2.16 0 1.2.98 2.17 2.17 2.17h1.95c.53 0 1.01-.2 1.39-.5 1.26-.88 1.12-3.06.9-4.4-.18-1-.74-.48-.74-.48Z" />
        <path fill="#72BD87"
            d="M11.49 10.63c.27.12.6.01.75-.25l4.36-7.55L20 1.5A.6.6 0 1 0 19.58.4l-3.6 1.4a.6.6 0 0 0-.3.25L11.2 9.8a.6.6 0 0 0 .28.84Z" />
        <path fill="#D2F2CD"
            d="M14.17 5.66c0-.28 0-.59-.05-.92l-2.91 5.05a.6.6 0 0 0 1.03.59l2.44-4.23a3.5 3.5 0 0 0-.5-.49Z" />
        <path fill="#CC5BA5"
            d="M11.85 7.55h-.68c-.82 0-1.53-.48-1.87-1.18h.84a.36.36 0 1 0 0-.71H9.1l-.01-.19c0-.55.47-1.35.9-1.82-.87.2-1.64.19-1.64.19-1.2 0-2.17.97-2.17 2.16 0 1.2.98 2.17 2.17 2.17h1.95c.53 0 1.01-.2 1.39-.5l.15-.12Z" />
        <path fill="#F07CC8"
            d="M12.06 10.55H6.85A2.04 2.04 0 0 1 4.8 8.51v-.1c0-1.12.92-2.04 2.04-2.04h5.21c1.12 0 2.04.92 2.04 2.04v.1c0 1.13-.92 2.04-2.04 2.04Z" />
        <path fill="#CC5BA5"
            d="M10.34 7.95H8.15a2.05 2.05 0 0 1 1.99-1.58h-3.3c-1.11 0-2.03.92-2.03 2.04v.1c0 1.13.92 2.04 2.04 2.04h3.29A2.04 2.04 0 0 1 8.1 8.66h2.23a.36.36 0 1 0 0-.71Z" />
        <path fill="#F07CC8"
            d="M12.86 12.81h-6.8a2.08 2.08 0 0 1-2.08-2.07c0-1.14.93-2.08 2.08-2.08h6.8a2.08 2.08 0 0 1 0 4.15Z" />
        <path fill="#F07CC8"
            d="M7.27 10.74c0-1.14.93-2.08 2.07-2.08H6.06a2.08 2.08 0 0 0 0 4.15h3.28a2.08 2.08 0 0 1-2.07-2.07Z" />
        <path fill="#C2DFF6"
            d="m4.69 13.56 1.85 9.46c.07.36.39.62.75.62h4.4c.38 0 .7-.26.76-.63l1.77-9.5-9.53.05Z" />
        <path fill="#96C8EF"
            d="m4.69 13.56 1.85 9.46c.07.36.39.62.75.62h1.84a.77.77 0 0 1-.75-.62l-1.85-9.46H4.69Z" />
        <path fill="#5AAAE7" d="m4.69 13.56.52 2.66h1.84l-.52-2.66H4.69Z" opacity=".5" />
        <path fill="#CC5BA5"
            d="m5.7 13.13 1.63 8.91s.1.65.72.65h2.9c.59 0 .72-.65.72-.65l1.68-8.9H5.7Z" />
        <path fill="#F07CC8"
            d="m9.56 22.04-1.62-8.9H5.71l1.62 8.9s.1.65.72.65h2.9-.67c-.6 0-.72-.65-.72-.65Z" />
        <path fill="#78B9EB" d="M5.21 16.22h8.51l.5-2.7-9.53.04.52 2.66Z" />
        <path fill="#C2DFF6"
            d="M15.18 11.45a.57.57 0 0 0-.44-.22H4.18a.57.57 0 0 0-.56.7l.4 1.7c.06.27.3.45.56.45h9.75c.27 0 .5-.18.56-.44l.4-1.7a.57.57 0 0 0-.1-.5Z" />
        <path fill="#96C8EF"
            d="m5.86 13.64-.4-1.7a.57.57 0 0 1 .56-.7H4.18a.57.57 0 0 0-.56.7l.4 1.7c.06.26.3.44.56.44h1.84a.57.57 0 0 1-.56-.44ZM13.32 13.01h-3.26a.36.36 0 1 1 0-.71h3.26a.36.36 0 0 1 0 .71Z" />
        <path fill="#fff"
            d="M11.73 7.7a.33.33 0 1 0 0-.66.33.33 0 0 0 0 .66ZM11.63 5.06a.33.33 0 1 0 0-.67.33.33 0 0 0 0 .67ZM12.64 10.55a.21.21 0 1 0 0-.42.21.21 0 0 0 0 .42ZM10.49 10.03a.21.21 0 1 0 0-.42.21.21 0 0 0 0 .42ZM11.3 3.83a.21.21 0 1 0 0-.43.21.21 0 0 0 0 .43ZM10.06 5.27a.21.21 0 1 0 0-.42.21.21 0 0 0 0 .42Z" />
        <path fill="#000"
            d="M13.24 18.82a.36.36 0 0 0-.42.29l-.23 1.24c-.03.19.1.38.29.41.02 0 .35.06.42-.28l.23-1.24a.36.36 0 0 0-.29-.42Z" />
        <path fill="#000"
            d="M20.69.6a.95.95 0 0 0-1.24-.54l-3.6 1.4a.95.95 0 0 0-.49.41l-2.33 4.05c.12-.75.1-1.66-.09-2.72-.08-.48-.27-.77-.56-.87-.39-.13-.72.16-.76.2-1.08.98-3.23.95-3.25.95h-.01c-.36 0-.71.08-1.04.23a.36.36 0 1 0 .3.65c.23-.11.48-.16.74-.17.14 0 2.47.04 3.75-1.14.09-.09.1.1.13.27.13.77.23 1.83.04 2.71h-.32a.36.36 0 1 0 0 .72h.36c.81.13 1.42.84 1.42 1.66v.06c-.13-.05-.27-.09-.4-.12a.36.36 0 0 0-.43.28c-.04.2.1.37.28.42 1.56.47 1.38 1.78 1.38 1.83H4.34a1.72 1.72 0 0 1 1.37-1.82.36.36 0 0 0-.15-.7 2.4 2.4 0 0 0-.4.12V8.4c0-.82.62-1.53 1.43-1.66h.26a.36.36 0 1 0 0-.72h-.29s-.02-.38.11-.67c.08-.18-.02-.4-.2-.47-.19-.07-.38.03-.46.2-.23.5-.17 1.07-.16 1.15-1.57.8-1.39 2.52-1.37 2.65-1.03.83-.85 2.05-.84 2.15a.93.93 0 0 0-.37.98l.4 1.7c.1.4.43.68.83.71l1.7 8.66c.1.53.56.91 1.1.91h4.4c.55 0 1.01-.39 1.11-.92l.26-1.38a.36.36 0 1 0-.7-.13l-.26 1.38c-.04.2-.2.34-.4.34H7.3a.41.41 0 0 1-.4-.34l-1.25-6.37h7.65l-.24 1.27c-.04.2.1.38.29.41.02 0 .35.04.41-.28l.66-3.55c.4-.04.72-.32.82-.7l.4-1.71a.92.92 0 0 0-.37-.98 2.42 2.42 0 0 0-.84-2.16c.02-.12.12-.96-.14-1.34l2.56-4.42 3.3-1.28a.95.95 0 0 0 .54-1.23Zm-7.26 15.27H5.5l-.28-1.43h8.47l-.27 1.43Zm1.3-4.28a.21.21 0 0 1 .2.26l-.39 1.7c-.02.1-.1.17-.2.17H4.57a.21.21 0 0 1-.2-.16l-.41-1.7a.21.21 0 0 1 .2-.27h10.57Zm5.29-10.54a.24.24 0 0 1-.14.12L16.47 2.5a.36.36 0 0 0-.18.15l-2.42 4.2c-.1-.13-.23-.24-.36-.34l2.47-4.28a.24.24 0 0 1 .12-.1l3.61-1.4a.24.24 0 0 1 .31.14c.02.06.02.12 0 .18Z" />
    </g>
    <defs>
        <clipPath id="a">
            <path fill="#fff" d="M0 0h24v24H0z" />
        </clipPath>
    </defs>
</svg>
